X:2975
L:1/8
M:2/2
K:D
 B | ADFA BdAF | GeFd eEEB | ADFA GdAg | faeg fdd :| g | fadf d/e/f/g/ af | gefd ceeg | 
 fadf d/e/f/g/ af | geag fddg | fadf d/e/f/g/ af | gefd ceeg | fadf gbeg | fdeg fdd ||

